X:88
T: Állok, állok a tó partján egyedül
M:4/4
L:1/4
K:C
G>^F G A | G<E C D | E<C C z |
c c G c | B A F < A | B<G G z |
c c G < c | B A F A | G E C z |
G>^F G A | G<E C D | E<C  C z |


